component-icons/svg/imageeditor.svg

<?xml version="1.0" encoding="utf-8"?>
<!-- Generator: Adobe Illustrator 24.2.3, SVG Export Plug-In . SVG Version: 6.00 Build 0)  -->
<svg version="1.1" id="Layer_1" xmlns="http://www.w3.org/2000/svg" xmlns:xlink="http://www.w3.org/1999/xlink" x="0px" y="0px"
	 width="24px" height="24px" viewBox="0 0 24 24" enable-background="new 0 0 24 24" xml:space="preserve">
<path d="M15.5,15c0.8,0,1.5-0.7,1.5-1.5S16.3,12,15.5,12c-0.8,0-1.5,0.7-1.5,1.5S14.7,15,15.5,15z M15,17l-1,1l-4-4l-6,6h14L15,17z
	 M20,4h-4v2h4V4z M14,4h-4v2h4V4z M0,0v24h20l4-4V0H0z M22,19.2L19.2,22H2V10h20V19.2z M22,8H2V2h20V8z M8,4H4v2h4V4z"/>
</svg>

<svg id="Layer_1" data-name="Layer 1" xmlns="http://www.w3.org/2000/svg" viewBox="0 0 24 24"><defs><style>.cls-1{fill:gray;}</style></defs><path class="cls-1" d="M15.5,15A1.5,1.5,0,1,0,14,13.5,1.5,1.5,0,0,0,15.5,15ZM15,17l-1,1-4-4L4,20H18ZM20,4H16V6h4ZM14,4H10V6h4ZM0,0V24H20l4-4V0ZM22,19.17,19.17,22H2V10H22ZM22,8H2V2H22ZM8,4H4V6H8Z"/></svg>
